!!!SOCIAL_FUNCTION:	songs of war
!!!PDT:	1918

Specific Region: Dakotas, Minnesota, Montana, Nebraska
!!!REG: Dakotas and Montana
!!!LING_GROUP: Siouan
!!!LANG: Tone
!!!OTL@ENG: Song of the White Horse Riders (a)
!!!ONM: No. 123
**kern
*Imale
*clefF4
*k[f#c#g#d#]
*M2/4
*MM66
8e
8e
8f#
8e
=2
8B
8e
16e
8.e
=3||
*M3/4
4B
8G#
8G#
4G#
=4||
*M2/4
8B
8B
8e
8c
=5
8B
8c
16c
8c
16c
=6||
*M3/4
4B
8G#
8G#
4G#
=7||
*M2/4
8B
8B
8c#
8B
=8
8A
8B
16B
8B
16B
=9||
*M3/4
4G#
8E
8E
4E
=10||
*M2/4
8G#
8G#
8B
8G#
=11
16E
16r
8G#
16B
8G#
16G#
=12
4E
8E
8E
=13
2E
=14
2E
=15||
*M3/4
4B
8G#
8G#
4G#
=16||
*M2/4
8B
8B
8e
8c
=17
8B
8c
16c
8c
16c
=18||
*M3/4
4B
8G#
8G#
4G#
=19||
*M2/4
8B
8B
8c#
8B
=20
16A
16r
8B
16B
8B
16B
=21||
*M3/4
4G#
8E
8E
4E
=22||
*M2/4
8G#
8G#
8B
8G#
=23
16E
16r
8G#
16B
8G#
16G#
=24
4E
8E
8E
=25
2E
=26
2E
==
*-
!!!CNT: Native American -- Sioux
!!!MRD: 1911/07//-1914///
!!!OCL: Frances Densmore
!!!YOR1: Teton Sioux Music, Bulletin 61,
!!!YOR2: Bureau of American Ethnology, Smithsonian Institution
!!!PPR: Government Printing Office
!!!PPP: Washington, D.C.
!!!PDT: 1918///
!!!ENC: Craig Stuart Sapp
!!!END: 2002/03/25/
!!!EEV: 2002/03/31/
!!!AGN: War Song
!!!MPN@@SIO: Waha'chungka-nong'pa
!!!MPN@ENG: Two Shields
!!!TXO: Teton Sioux
!!!MLC: Standing Rock Reservation, South Dakota, United States of America
!!!ARL: 45.9/-100.7#
!!!catalog: Catalogue No. 534
!!!PPG: 330
!!!EFL: 123/245
!!!VTS: 2529836491
